resources/haticons/SVG/vagrant.svg

<!-- Generated by IcoMoon.io -->
<svg version="1.1" xmlns="http://www.w3.org/2000/svg" width="24" height="24" viewBox="0 0 24 24">
<title>vagrant</title>
<path fill="#1563ff" d="M5.672 6.774v-1.857l3.164-1.822-5.276-3.090-3.163 1.847v2.263l7.123 17.295 4.48 2.585v-6.496l2.107-1.224-0.024-0.015 4.245-9.486v-1.857l5.275-3.065-3.164-1.847-5.275 3.087v2.11l-3.164 7.382v2.467l-2.11 1.224zM8.836 3.114l-0.022-0.014-3.142 1.817v1.857l4.218 9.501 2.11-1.041v-2.65l-3.164-7.382zM18.328 4.917v1.857l-4.22 9.101-2.108 1.457v6.663l4.521-2.607 7.082-17.338v-2.198z"></path>
</svg>

<svg xmlns="http://www.w3.org/2000/svg" width="24" height="24"><path fill="#1563ff" d="M5.672 6.774V4.917l3.164-1.822L3.56.005.397 1.852v2.263L7.52 21.41 12 23.995v-6.496l2.107-1.224-.024-.015 4.245-9.486V4.917l5.275-3.065L20.439.005l-5.275 3.087v2.11L12 12.584v2.467l-2.11 1.224zm3.164-3.66L8.814 3.1 5.672 4.917v1.857l4.218 9.501L12 15.234v-2.65L8.836 5.202zm9.492 1.803v1.857l-4.22 9.101L12 17.332v6.663l4.521-2.607L23.603 4.05V1.852z"/></svg>
